X:1
T:Kom lunkom
D: Hkensemblen - Hk
R:Polska
O:Hgsby, Smland
M:3/4
L:1/8
K:Em
B2E2EG|FE D2 B,2|ED EF GA|AB B4:|
G3/2A/2 Bc/2B/2 AG|F3/2G/2 AB/2A/2 GF|G3/2A/2 Bc/2B/2 AG|F3/2G/2 AB/2A/2 GF|
ED EF GA | BD E2E2:|
